; G-Code generated by Simplify3D(R) Version 4.1.2
; Apr 13, 2020 at 1:31:30 AM
; Settings Summary
;   processName,Process1
;   applyToModels,Elasticos - revoluprint_DC,Elasticos - revoluprint_DC(2),Elasticos - revoluprint_DC(3)
;   profileName,HyperCubeZZ_Linear Advance (modified)
;   profileVersion,2020-04-12 01:25:45
;   baseProfile,
;   printMaterial,PLA
;   printQuality,Fast
;   printExtruders,
;   extruderName,Primary Extruder
;   extruderToolheadNumber,0
;   extruderDiameter,0.4
;   extruderAutoWidth,0
;   extruderWidth,0.55
;   extrusionMultiplier,1
;   extruderUseRetract,1
;   extruderRetractionDistance,1
;   extruderExtraRestartDistance,0
;   extruderRetractionZLift,0
;   extruderRetractionSpeed,3600
;   extruderUseCoasting,0
;   extruderCoastingDistance,1
;   extruderUseWipe,0
;   extruderWipeDistance,5
;   primaryExtruder,0
;   layerHeight,0.28
;   topSolidLayers,3
;   bottomSolidLayers,3
;   perimeterOutlines,2
;   printPerimetersInsideOut,1
;   startPointOption,2
;   startPointOriginX,0
;   startPointOriginY,0
;   sequentialIslands,0
;   spiralVaseMode,0
;   firstLayerHeightPercentage,100
;   firstLayerWidthPercentage,120
;   firstLayerUnderspeed,0.4
;   useRaft,0
;   raftExtruder,0
;   raftTopLayers,1
;   raftBaseLayers,2
;   raftOffset,3
;   raftSeparationDistance,0.14
;   raftTopInfill,100
;   aboveRaftSpeedMultiplier,0.3
;   useSkirt,0
;   skirtExtruder,0
;   skirtLayers,1
;   skirtOutlines,1
;   skirtOffset,2
;   usePrimePillar,0
;   primePillarExtruder,999
;   primePillarWidth,12
;   primePillarLocation,7
;   primePillarSpeedMultiplier,1
;   useOozeShield,0
;   oozeShieldExtruder,999
;   oozeShieldOffset,2
;   oozeShieldOutlines,1
;   oozeShieldSidewallShape,1
;   oozeShieldSidewallAngle,30
;   oozeShieldSpeedMultiplier,1
;   infillExtruder,0
;   internalInfillPattern,Rectilinear
;   externalInfillPattern,Rectilinear
;   infillPercentage,20
;   outlineOverlapPercentage,30
;   infillExtrusionWidthPercentage,100
;   minInfillLength,5
;   infillLayerInterval,1
;   internalInfillAngles,45,-45
;   overlapInternalInfillAngles,0
;   externalInfillAngles,45,-45
;   generateSupport,0
;   supportExtruder,0
;   supportInfillPercentage,30
;   supportExtraInflation,0
;   supportBaseLayers,2
;   denseSupportExtruder,0
;   denseSupportLayers,2
;   denseSupportInfillPercentage,70
;   supportLayerInterval,1
;   supportHorizontalPartOffset,0.2
;   supportUpperSeparationLayers,1
;   supportLowerSeparationLayers,1
;   supportType,1
;   supportGridSpacing,1
;   maxOverhangAngle,45
;   supportAngles,90
;   temperatureName,Primary Extruder,hotbed
;   temperatureNumber,0,1
;   temperatureSetpointCount,1,1
;   temperatureSetpointLayers,1,1
;   temperatureSetpointTemperatures,210,60
;   temperatureStabilizeAtStartup,1,1
;   temperatureHeatedBed,0,1
;   fanLayers,5,20
;   fanSpeeds,30,60
;   blipFanToFullPower,0
;   adjustSpeedForCooling,1
;   minSpeedLayerTime,15
;   minCoolingSpeedSlowdown,20
;   increaseFanForCooling,0
;   minFanLayerTime,45
;   maxCoolingFanSpeed,70
;   increaseFanForBridging,0
;   bridgingFanSpeed,50
;   use5D,1
;   relativeEdistances,0
;   allowEaxisZeroing,1
;   independentExtruderAxes,0
;   includeM10123,0
;   stickySupport,1
;   applyToolheadOffsets,0
;   gcodeXoffset,0
;   gcodeYoffset,0
;   gcodeZoffset,0
;   overrideMachineDefinition,1
;   machineTypeOverride,0
;   strokeXoverride,217
;   strokeYoverride,217
;   strokeZoverride,240
;   originOffsetXoverride,0
;   originOffsetYoverride,0
;   originOffsetZoverride,0
;   homeXdirOverride,-1
;   homeYdirOverride,-1
;   homeZdirOverride,-1
;   flipXoverride,1
;   flipYoverride,-1
;   flipZoverride,1
;   toolheadOffsets,0,0|0,0|0,0|0,0|0,0|0,0
;   overrideFirmwareConfiguration,0
;   firmwareTypeOverride,RepRap (Marlin/Repetier/Sprinter)
;   GPXconfigOverride,r2
;   baudRateOverride,115200
;   overridePrinterModels,0
;   printerModelsOverride
;   startingGcode,;clean nozzle,M117 Clean			; Indicate nozzle clean in progress on LCD,M107				; Turn layer fan off,G21				; Set to metric [change to G20 if you want Imperial],G90                          ; Force coordinates to be absolute relative to the origin,G28                          ; Home X/Y/Z axis,;G1 F1800 E-2           ; big retract after autolevel ,G29	;autolevel,M109 S240 T0,M109 S80 T1,G0 X0 Y0 Z0.25 F9000         ; Move in 1mm from edge and up [z] 0.25mm,G92 E0                       ; Set extruder to [0] zero,G1 X50 E60 F200             ; Extrude 50mm filiment along Y axis 150mm long to prime and clean the nozzle,G92 E0                       ; Reset extruder to [0] zero end of cleaning run,; Begin printing with sliced GCode after here,M420 S1,M117 "imprimiendo..",;M900 K0.22 ;pla Grilon3,M900 K0.06 ;PETG PAL NARANJA
;   layerChangeGcode,
;   retractionGcode,
;   toolChangeGcode,
;   endingGcode,M104 S0 ; turn off extruder,M140 S0 ; turn off bed,G28 X0,M84 ; disable motors,M107,;G1 Z150
;   exportFileFormat,gcode
;   celebration,0
;   celebrationSong,Random Song
;   postProcessing,
;   defaultSpeed,6000
;   outlineUnderspeed,0.7
;   solidInfillUnderspeed,0.8
;   supportUnderspeed,0.8
;   rapidXYspeed,7200
;   rapidZspeed,1002
;   minBridgingArea,40
;   bridgingExtraInflation,0
;   bridgingExtrusionMultiplier,1
;   bridgingSpeedMultiplier,1
;   useFixedBridgingAngle,0
;   fixedBridgingAngle,0
;   applyBridgingToPerimeters,0
;   filamentDiameters,1.75|1.75|1.75|1.75|1.75|1.75
;   filamentPricesPerKg,500|500|500|500|500|500
;   filamentDensities,1.25|1.25|1.25|1.25|1.25|1.25
;   useMinPrintHeight,0
;   minPrintHeight,1.1
;   useMaxPrintHeight,0
;   maxPrintHeight,1.1
;   useDiaphragm,0
;   diaphragmLayerInterval,20
;   robustSlicing,1
;   mergeAllIntoSolid,0
;   onlyRetractWhenCrossingOutline,1
;   retractBetweenLayers,1
;   useRetractionMinTravel,0
;   retractionMinTravel,3
;   retractWhileWiping,0
;   onlyWipeOutlines,1
;   avoidCrossingOutline,0
;   maxMovementDetourFactor,3
;   toolChangeRetractionDistance,12
;   toolChangeExtraRestartDistance,-0.5
;   toolChangeRetractionSpeed,600
;   externalThinWallType,0
;   internalThinWallType,1
;   thinWallAllowedOverlapPercentage,10
;   singleExtrusionMinLength,1
;   singleExtrusionMinPrintingWidthPercentage,50
;   singleExtrusionMaxPrintingWidthPercentage,200
;   singleExtrusionEndpointExtension,0.2
;   horizontalSizeCompensation,0
G90
M82
M106 S0
M140 S60
M190 S60
M104 S210 T0
M109 S210 T0
;clean nozzle
M117 Clean			; Indicate nozzle clean in progress on LCD
M107				; Turn layer fan off
G21				; Set to metric [change to G20 if you want Imperial]
G90                          ; Force coordinates to be absolute relative to the origin
G28                          ; Home X/Y/Z axis
;G1 F1800 E-2           ; big retract after autolevel 
G29	;autolevel
M109 S210 T0
M109 S60 T1
G0 X0 Y0 Z0.25 F6000         ; Move in 1mm from edge and up [z] 0.25mm
G92 E0                       ; Set extruder to [0] zero
G1 X50 E60 F200             ; Extrude 50mm filiment along Y axis 150mm long to prime and clean the nozzle
G92 E0                       ; Reset extruder to [0] zero end of cleaning run
; Begin printing with sliced GCode after here
M420 S1
M117 "imprimiendo.."
;M900 K0.22 ;pla Grilon3
M900 K0.06 ;PETG PAL NARANJA
; process Process1
; layer 1, Z = 0.280
T0
G92 E0.0000
G1 E-1.0000 F3600
; feature outer perimeter
; tool H0.280 W0.660
G1 Z0.280 F1002
G1 X56.962 Y49.148 F7200
G1 E0.0000 F3600
G92 E0.0000
G1 X57.330 Y48.841 E0.0368 F1680
G1 X57.737 Y48.587 E0.0737
G1 X58.176 Y48.394 E0.1105
G1 X58.637 Y48.263 E0.1474
G1 X59.113 Y48.199 E0.1842
G1 X59.592 Y48.202 E0.2211
G1 X60.067 Y48.272 E0.2579
G1 X60.527 Y48.408 E0.2948
G1 X60.974 Y48.612 E0.3325
G1 X65.084 Y50.847 E0.6920
G1 X65.478 Y51.018 E0.7250
G1 X65.912 Y51.118 E0.7592
G1 X66.356 Y51.139 E0.7934
G1 X66.797 Y51.080 E0.8276
G1 X67.221 Y50.944 E0.8618
G1 X67.613 Y50.733 E0.8960
G1 X67.961 Y50.456 E0.9301
G1 X68.253 Y50.120 E0.9643
G1 X68.481 Y49.738 E0.9985
G1 X68.636 Y49.321 E1.0327
G1 X68.715 Y48.883 E1.0669
G1 X68.713 Y48.438 E1.1011
G1 X68.635 Y48.016 E1.1341
G1 X67.386 Y43.502 E1.4939
G1 X67.288 Y43.021 E1.5316
G1 X67.260 Y42.542 E1.5685
G1 X67.299 Y42.064 E1.6053
G1 X67.405 Y41.596 E1.6422
G1 X67.575 Y41.148 E1.6790
G1 X67.806 Y40.728 E1.7159
G1 X68.094 Y40.344 E1.7527
G1 X68.433 Y40.004 E1.7896
G1 X68.816 Y39.716 E1.8264
G1 X69.235 Y39.484 E1.8633
G1 X69.684 Y39.313 E1.9001
G1 X70.151 Y39.206 E1.9370
G1 X70.629 Y39.166 E1.9738
G1 X71.108 Y39.193 E2.0107
G1 X71.578 Y39.288 E2.0475
G1 X72.031 Y39.447 E2.0843
G1 X72.456 Y39.668 E2.1212
G1 X72.856 Y39.953 E2.1589
G1 X76.465 Y42.930 E2.5184
G1 X76.820 Y43.172 E2.5514
G1 X77.226 Y43.354 E2.5856
G1 X77.658 Y43.459 E2.6197
G1 X78.101 Y43.486 E2.6539
G1 X78.543 Y43.433 E2.6880
G1 X78.968 Y43.302 E2.7222
G1 X79.362 Y43.097 E2.7563
G1 X79.713 Y42.824 E2.7905
G1 X80.010 Y42.493 E2.8246
G1 X80.243 Y42.115 E2.8588
G1 X80.405 Y41.701 E2.8930
G1 X80.490 Y41.264 E2.9271
G1 X80.495 Y40.834 E2.9601
G1 X80.130 Y36.166 E3.3199
G1 X80.126 Y35.675 E3.3576
G1 X80.190 Y35.200 E3.3945
G1 X80.319 Y34.738 E3.4313
G1 X80.512 Y34.299 E3.4681
G1 X80.765 Y33.892 E3.5050
G1 X81.072 Y33.523 E3.5418
G1 X81.427 Y33.202 E3.5787
G1 X81.825 Y32.933 E3.6155
G1 X82.255 Y32.723 E3.6523
G1 X82.712 Y32.575 E3.6892
G1 X83.184 Y32.492 E3.7260
G1 X83.663 Y32.477 E3.7629
G1 X84.140 Y32.529 E3.7997
G1 X84.605 Y32.647 E3.8365
G1 X85.048 Y32.829 E3.8734
G1 X85.462 Y33.071 E3.9102
G1 X85.838 Y33.369 E3.9471
G1 X86.176 Y33.725 E3.9848
G1 X89.155 Y37.337 E4.3445
G1 X89.457 Y37.643 E4.3775
G1 X89.821 Y37.898 E4.4117
G1 X90.224 Y38.083 E4.4458
G1 X90.654 Y38.194 E4.4799
G1 X91.098 Y38.226 E4.5140
G1 X91.539 Y38.178 E4.5482
G1 X91.965 Y38.052 E4.5823
G1 X92.362 Y37.852 E4.6164
G1 X92.716 Y37.584 E4.6506
G1 X93.017 Y37.257 E4.6847
G1 X93.254 Y36.881 E4.7188
G1 X93.420 Y36.469 E4.7529
G1 X93.507 Y36.049 E4.7859
G1 X94.040 Y31.397 E5.1457
G1 X94.130 Y30.914 E5.1834
G1 X94.283 Y30.459 E5.2203
G1 X94.499 Y30.031 E5.2572
G1 X94.772 Y29.636 E5.2940
G1 X95.098 Y29.284 E5.3309
G1 X95.470 Y28.981 E5.3677
G1 X95.880 Y28.734 E5.4046
G1 X96.322 Y28.546 E5.4414
G1 X96.785 Y28.422 E5.4783
G1 X97.261 Y28.364 E5.5151
G1 X97.741 Y28.373 E5.5520
G1 X98.215 Y28.450 E5.5889
G1 X98.673 Y28.592 E5.6257
G1 X99.107 Y28.797 E5.6626
G1 X99.507 Y29.061 E5.6994
G1 X99.867 Y29.378 E5.7363
G1 X100.179 Y29.743 E5.7731
G1 X100.443 Y30.157 E5.8109
G1 X102.669 Y34.267 E6.1700
G1 X102.907 Y34.625 E6.2030
G1 X103.216 Y34.946 E6.2373
G1 X103.577 Y35.206 E6.2715
G1 X103.979 Y35.398 E6.3057
G1 X104.409 Y35.514 E6.3399
G1 X104.853 Y35.552 E6.3741
G1 X105.297 Y35.509 E6.4084
G1 X105.725 Y35.388 E6.4426
G1 X106.125 Y35.192 E6.4768
G1 X106.484 Y34.928 E6.5110
G1 X106.789 Y34.604 E6.5452
G1 X107.031 Y34.230 E6.5795
G1 X107.197 Y33.833 E6.6125
G1 X108.604 Y29.371 E6.9719
G1 X108.784 Y28.914 E7.0097
G1 X109.021 Y28.497 E7.0465
G1 X109.314 Y28.117 E7.0834
G1 X109.657 Y27.782 E7.1202
G1 X110.044 Y27.499 E7.1571
G1 X110.466 Y27.272 E7.1939
G1 X110.917 Y27.107 E7.2308
G1 X111.386 Y27.006 E7.2677
G1 X111.864 Y26.973 E7.3045
G1 X112.343 Y27.006 E7.3414
G1 X112.812 Y27.107 E7.3782
G1 X113.262 Y27.272 E7.4151
G1 X113.685 Y27.499 E7.4519
G1 X114.072 Y27.782 E7.4888
G1 X114.415 Y28.117 E7.5256
G1 X114.708 Y28.497 E7.5625
G1 X114.945 Y28.914 E7.5993
G1 X115.125 Y29.371 E7.6371
G1 X116.531 Y33.833 E7.9965
G1 X116.697 Y34.230 E8.0295
G1 X116.940 Y34.604 E8.0638
G1 X117.245 Y34.928 E8.0980
G1 X117.603 Y35.192 E8.1322
G1 X118.003 Y35.388 E8.1664
G1 X118.432 Y35.509 E8.2006
G1 X118.875 Y35.552 E8.2349
G1 X119.319 Y35.514 E8.2691
G1 X119.749 Y35.398 E8.3033
G1 X120.151 Y35.206 E8.3375
G1 X120.513 Y34.946 E8.3718
G1 X120.822 Y34.625 E8.4060
G1 X121.060 Y34.267 E8.4391
G1 X123.286 Y30.157 E8.7981
G1 X123.549 Y29.744 E8.8357
G1 X123.859 Y29.381 E8.8724
G1 X124.217 Y29.064 E8.9091
G1 X124.616 Y28.801 E8.9459
G1 X125.047 Y28.596 E8.9826
G1 X125.503 Y28.453 E9.0193
G1 X125.614 Y28.434 E9.0279
G1 X125.614 Y28.580 E9.0391
G1 X125.394 Y28.624 E9.0563
G1 X124.906 Y28.807 E9.0963
G1 X124.453 Y29.064 E9.1363
G1 X124.047 Y29.390 E9.1764
G1 X123.698 Y29.777 E9.2164
G1 X123.421 Y30.202 E9.2554
G1 X121.196 Y34.309 E9.6142
G1 X120.968 Y34.662 E9.6465
G1 X120.696 Y34.965 E9.6778
G1 X120.380 Y35.223 E9.7092
G1 X120.028 Y35.429 E9.7405
G1 X119.648 Y35.577 E9.7718
G1 X119.250 Y35.664 E9.8031
G1 X118.843 Y35.689 E9.8344
G1 X118.438 Y35.650 E9.8657
G1 X118.043 Y35.549 E9.8971
G1 X117.669 Y35.387 E9.9284
G1 X117.324 Y35.170 E9.9597
G1 X117.017 Y34.901 E9.9910
G1 X116.756 Y34.588 E10.0223
G1 X116.547 Y34.238 E10.0536
G1 X116.390 Y33.848 E10.0860
G1 X114.984 Y29.390 E10.4451
G1 X114.795 Y28.922 E10.4839
G1 X114.527 Y28.479 E10.5236
G1 X114.194 Y28.083 E10.5634
G1 X113.802 Y27.745 E10.6032
G1 X113.361 Y27.473 E10.6430
G1 X112.884 Y27.274 E10.6827
G1 X112.380 Y27.152 E10.7225
G1 X111.864 Y27.111 E10.7623
G1 X111.348 Y27.152 E10.8021
G1 X110.845 Y27.274 E10.8418
G1 X110.367 Y27.473 E10.8816
G1 X109.927 Y27.745 E10.9214
G1 X109.535 Y28.083 E10.9612
G1 X109.201 Y28.479 E11.0009
G1 X108.934 Y28.922 E11.0407
G1 X108.745 Y29.390 E11.0795
G1 X107.339 Y33.848 E11.4386
G1 X107.182 Y34.238 E11.4709
G1 X106.972 Y34.588 E11.5022
G1 X106.711 Y34.901 E11.5336
G1 X106.405 Y35.170 E11.5649
G1 X106.060 Y35.387 E11.5962
G1 X105.686 Y35.549 E11.6275
G1 X105.291 Y35.650 E11.6588
G1 X104.885 Y35.689 E11.6901
G1 X104.478 Y35.664 E11.7215
G1 X104.080 Y35.577 E11.7528
G1 X103.701 Y35.429 E11.7841
G1 X103.349 Y35.223 E11.8154
G1 X103.033 Y34.965 E11.8467
G1 X102.761 Y34.662 E11.8780
G1 X102.532 Y34.309 E11.9104
G1 X100.308 Y30.202 E12.2692
G1 X100.033 Y29.779 E12.3080
G1 X99.686 Y29.395 E12.3477
G1 X99.283 Y29.070 E12.3875
G1 X98.834 Y28.812 E12.4273
G1 X98.350 Y28.628 E12.4671
G1 X97.843 Y28.523 E12.5068
G1 X97.326 Y28.500 E12.5466
G1 X96.812 Y28.558 E12.5864
G1 X96.313 Y28.696 E12.6262
G1 X95.842 Y28.911 E12.6659
G1 X95.411 Y29.198 E12.7057
G1 X95.030 Y29.549 E12.7455
G1 X94.709 Y29.955 E12.7853
G1 X94.457 Y30.407 E12.8251
G1 X94.279 Y30.893 E12.8648
G1 X94.182 Y31.388 E12.9036
G1 X93.649 Y36.037 E13.2631
G1 X93.569 Y36.449 E13.2954
G1 X93.431 Y36.831 E13.3266
G1 X93.235 Y37.187 E13.3578
G1 X92.986 Y37.509 E13.3891
G1 X92.689 Y37.787 E13.4203
G1 X92.354 Y38.017 E13.4515
G1 X91.987 Y38.191 E13.4828
G1 X91.597 Y38.307 E13.5140
G1 X91.194 Y38.360 E13.5452
G1 X90.787 Y38.350 E13.5765
G1 X90.387 Y38.278 E13.6077
G1 X90.004 Y38.144 E13.6389
G1 X89.645 Y37.952 E13.6702
G1 X89.321 Y37.707 E13.7014
G1 X89.030 Y37.405 E13.7336
G1 X86.052 Y33.795 E14.0932
G1 X85.702 Y33.432 E14.1319
G1 X85.288 Y33.122 E14.1717
G1 X84.830 Y32.880 E14.2114
G1 X84.340 Y32.713 E14.2512
G1 X83.830 Y32.626 E14.2909
G1 X83.313 Y32.620 E14.3307
G1 X82.801 Y32.696 E14.3705
G1 X82.307 Y32.851 E14.4102
G1 X81.844 Y33.082 E14.4500
G1 X81.423 Y33.383 E14.4897
G1 X81.055 Y33.747 E14.5295
G1 X80.749 Y34.164 E14.5693
G1 X80.512 Y34.624 E14.6090
G1 X80.350 Y35.115 E14.6488
G1 X80.268 Y35.626 E14.6885
G1 X80.268 Y36.131 E14.7273
G1 X80.632 Y40.796 E15.0868
G1 X80.632 Y41.216 E15.1191
G1 X80.569 Y41.618 E15.1503
G1 X80.444 Y42.005 E15.1816
G1 X80.261 Y42.368 E15.2128
G1 X80.023 Y42.698 E15.2441
G1 X79.737 Y42.988 E15.2754
G1 X79.410 Y43.229 E15.3066
G1 X79.049 Y43.417 E15.3379
G1 X78.663 Y43.546 E15.3691
G1 X78.262 Y43.614 E15.4004
G1 X77.855 Y43.619 E15.4317
G1 X77.452 Y43.561 E15.4629
G1 X77.064 Y43.440 E15.4942
G1 X76.698 Y43.261 E15.5254
G1 X76.355 Y43.020 E15.5577
G1 X72.748 Y40.045 E15.9169
G1 X72.335 Y39.756 E15.9557
G1 X71.869 Y39.530 E15.9954
G1 X71.374 Y39.380 E16.0352
G1 X70.861 Y39.309 E16.0750
G1 X70.344 Y39.321 E16.1147
G1 X69.834 Y39.413 E16.1545
G1 X69.346 Y39.585 E16.1943
G1 X68.891 Y39.832 E16.2340
G1 X68.480 Y40.147 E16.2738
G1 X68.125 Y40.523 E16.3136
G1 X67.832 Y40.950 E16.3533
G1 X67.611 Y41.418 E16.3931
G1 X67.466 Y41.915 E16.4329
G1 X67.401 Y42.428 E16.4726
G1 X67.418 Y42.946 E16.5124
G1 X67.514 Y43.441 E16.5512
G1 X68.762 Y47.951 E16.9107
G1 X68.844 Y48.364 E16.9431
G1 X68.859 Y48.771 E16.9743
G1 X68.812 Y49.175 E17.0056
G1 X68.702 Y49.567 E17.0369
G1 X68.532 Y49.938 E17.0682
G1 X68.307 Y50.277 E17.0995
