; G-Code generated by Simplify3D(R) Version 4.1.2
; Apr 13, 2020 at 1:33:17 AM
; Settings Summary
;   processName,Process1
;   applyToModels,covid19_headband_rc3_DC_REMIX
;   profileName,HyperCubeZZ_Linear Advance (modified)
;   profileVersion,2020-04-12 01:25:45
;   baseProfile,
;   printMaterial,PLA
;   printQuality,Fast
;   printExtruders,
;   extruderName,Primary Extruder
;   extruderToolheadNumber,0
;   extruderDiameter,0.4
;   extruderAutoWidth,0
;   extruderWidth,0.55
;   extrusionMultiplier,1
;   extruderUseRetract,1
;   extruderRetractionDistance,1
;   extruderExtraRestartDistance,0
;   extruderRetractionZLift,0
;   extruderRetractionSpeed,3600
;   extruderUseCoasting,0
;   extruderCoastingDistance,1
;   extruderUseWipe,0
;   extruderWipeDistance,5
;   primaryExtruder,0
;   layerHeight,0.28
;   topSolidLayers,3
;   bottomSolidLayers,3
;   perimeterOutlines,2
;   printPerimetersInsideOut,1
;   startPointOption,2
;   startPointOriginX,0
;   startPointOriginY,0
;   sequentialIslands,0
;   spiralVaseMode,0
;   firstLayerHeightPercentage,100
;   firstLayerWidthPercentage,120
;   firstLayerUnderspeed,0.4
;   useRaft,0
;   raftExtruder,0
;   raftTopLayers,1
;   raftBaseLayers,2
;   raftOffset,3
;   raftSeparationDistance,0.14
;   raftTopInfill,100
;   aboveRaftSpeedMultiplier,0.3
;   useSkirt,0
;   skirtExtruder,0
;   skirtLayers,1
;   skirtOutlines,1
;   skirtOffset,2
;   usePrimePillar,0
;   primePillarExtruder,999
;   primePillarWidth,12
;   primePillarLocation,7
;   primePillarSpeedMultiplier,1
;   useOozeShield,0
;   oozeShieldExtruder,999
;   oozeShieldOffset,2
;   oozeShieldOutlines,1
;   oozeShieldSidewallShape,1
;   oozeShieldSidewallAngle,30
;   oozeShieldSpeedMultiplier,1
;   infillExtruder,0
;   internalInfillPattern,Rectilinear
;   externalInfillPattern,Rectilinear
;   infillPercentage,20
;   outlineOverlapPercentage,30
;   infillExtrusionWidthPercentage,100
;   minInfillLength,5
;   infillLayerInterval,1
;   internalInfillAngles,45,-45
;   overlapInternalInfillAngles,0
;   externalInfillAngles,45,-45
;   generateSupport,0
;   supportExtruder,0
;   supportInfillPercentage,30
;   supportExtraInflation,0
;   supportBaseLayers,2
;   denseSupportExtruder,0
;   denseSupportLayers,2
;   denseSupportInfillPercentage,70
;   supportLayerInterval,1
;   supportHorizontalPartOffset,0.2
;   supportUpperSeparationLayers,1
;   supportLowerSeparationLayers,1
;   supportType,1
;   supportGridSpacing,1
;   maxOverhangAngle,45
;   supportAngles,90
;   temperatureName,Primary Extruder,hotbed
;   temperatureNumber,0,1
;   temperatureSetpointCount,1,1
;   temperatureSetpointLayers,1,1
;   temperatureSetpointTemperatures,210,60
;   temperatureStabilizeAtStartup,1,1
;   temperatureHeatedBed,0,1
;   fanLayers,5,20
;   fanSpeeds,30,60
;   blipFanToFullPower,0
;   adjustSpeedForCooling,1
;   minSpeedLayerTime,15
;   minCoolingSpeedSlowdown,20
;   increaseFanForCooling,0
;   minFanLayerTime,45
;   maxCoolingFanSpeed,70
;   increaseFanForBridging,0
;   bridgingFanSpeed,50
;   use5D,1
;   relativeEdistances,0
;   allowEaxisZeroing,1
;   independentExtruderAxes,0
;   includeM10123,0
;   stickySupport,1
;   applyToolheadOffsets,0
;   gcodeXoffset,0
;   gcodeYoffset,0
;   gcodeZoffset,0
;   overrideMachineDefinition,1
;   machineTypeOverride,0
;   strokeXoverride,217
;   strokeYoverride,217
;   strokeZoverride,240
;   originOffsetXoverride,0
;   originOffsetYoverride,0
;   originOffsetZoverride,0
;   homeXdirOverride,-1
;   homeYdirOverride,-1
;   homeZdirOverride,-1
;   flipXoverride,1
;   flipYoverride,-1
;   flipZoverride,1
;   toolheadOffsets,0,0|0,0|0,0|0,0|0,0|0,0
;   overrideFirmwareConfiguration,0
;   firmwareTypeOverride,RepRap (Marlin/Repetier/Sprinter)
;   GPXconfigOverride,r2
;   baudRateOverride,115200
;   overridePrinterModels,0
;   printerModelsOverride
;   startingGcode,;clean nozzle,M117 Clean			; Indicate nozzle clean in progress on LCD,M107				; Turn layer fan off,G21				; Set to metric [change to G20 if you want Imperial],G90                          ; Force coordinates to be absolute relative to the origin,G28                          ; Home X/Y/Z axis,;G1 F1800 E-2           ; big retract after autolevel ,G29	;autolevel,M109 S240 T0,M109 S80 T1,G0 X0 Y0 Z0.25 F9000         ; Move in 1mm from edge and up [z] 0.25mm,G92 E0                       ; Set extruder to [0] zero,G1 X50 E60 F200             ; Extrude 50mm filiment along Y axis 150mm long to prime and clean the nozzle,G92 E0                       ; Reset extruder to [0] zero end of cleaning run,; Begin printing with sliced GCode after here,M420 S1,M117 "imprimiendo..",;M900 K0.22 ;pla Grilon3,M900 K0.06 ;PETG PAL NARANJA
;   layerChangeGcode,
;   retractionGcode,
;   toolChangeGcode,
;   endingGcode,M104 S0 ; turn off extruder,M140 S0 ; turn off bed,G28 X0,M84 ; disable motors,M107,;G1 Z150
;   exportFileFormat,gcode
;   celebration,0
;   celebrationSong,Random Song
;   postProcessing,
;   defaultSpeed,6000
;   outlineUnderspeed,0.7
;   solidInfillUnderspeed,0.8
;   supportUnderspeed,0.8
;   rapidXYspeed,7200
;   rapidZspeed,1002
;   minBridgingArea,40
;   bridgingExtraInflation,0
;   bridgingExtrusionMultiplier,1
;   bridgingSpeedMultiplier,1
;   useFixedBridgingAngle,0
;   fixedBridgingAngle,0
;   applyBridgingToPerimeters,0
;   filamentDiameters,1.75|1.75|1.75|1.75|1.75|1.75
;   filamentPricesPerKg,500|500|500|500|500|500
;   filamentDensities,1.25|1.25|1.25|1.25|1.25|1.25
;   useMinPrintHeight,0
;   minPrintHeight,1.1
;   useMaxPrintHeight,0
;   maxPrintHeight,1.1
;   useDiaphragm,0
;   diaphragmLayerInterval,20
;   robustSlicing,1
;   mergeAllIntoSolid,0
;   onlyRetractWhenCrossingOutline,1
;   retractBetweenLayers,1
;   useRetractionMinTravel,0
;   retractionMinTravel,3
;   retractWhileWiping,0
;   onlyWipeOutlines,1
;   avoidCrossingOutline,0
;   maxMovementDetourFactor,3
;   toolChangeRetractionDistance,12
;   toolChangeExtraRestartDistance,-0.5
;   toolChangeRetractionSpeed,600
;   externalThinWallType,0
;   internalThinWallType,1
;   thinWallAllowedOverlapPercentage,10
;   singleExtrusionMinLength,1
;   singleExtrusionMinPrintingWidthPercentage,50
;   singleExtrusionMaxPrintingWidthPercentage,200
;   singleExtrusionEndpointExtension,0.2
;   horizontalSizeCompensation,0
G90
M82
M106 S0
M140 S60
M190 S60
M104 S210 T0
M109 S210 T0
;clean nozzle
M117 Clean			; Indicate nozzle clean in progress on LCD
M107				; Turn layer fan off
G21				; Set to metric [change to G20 if you want Imperial]
G90                          ; Force coordinates to be absolute relative to the origin
G28                          ; Home X/Y/Z axis
;G1 F1800 E-2           ; big retract after autolevel 
G29	;autolevel
M109 S210 T0
M109 S60 T1
G0 X0 Y0 Z0.25 F6000         ; Move in 1mm from edge and up [z] 0.25mm
G92 E0                       ; Set extruder to [0] zero
G1 X50 E60 F200             ; Extrude 50mm filiment along Y axis 150mm long to prime and clean the nozzle
G92 E0                       ; Reset extruder to [0] zero end of cleaning run
; Begin printing with sliced GCode after here
M420 S1
M117 "imprimiendo.."
;M900 K0.22 ;pla Grilon3
M900 K0.06 ;PETG PAL NARANJA
; process Process1
; layer 1, Z = 0.280
T0
G92 E0.0000
G1 E-1.0000 F3600
; feature inner perimeter
; tool H0.280 W0.660
G1 Z0.280 F1002
G1 X22.350 Y69.791 F7200
G1 E0.0000 F3600
G92 E0.0000
G1 X22.898 Y69.749 E0.0422 F2040
G1 X23.249 Y72.007 E0.2179
G1 X23.453 Y73.317 E0.3197
G1 X24.462 Y77.917 E0.6815
G1 X25.577 Y81.831 E0.9942
G1 X25.023 Y81.628 E1.0396
G1 X24.423 Y81.571 E1.0859
G1 X23.828 Y81.667 E1.1322
G1 X23.277 Y81.911 E1.1785
G1 X22.350 Y82.651 E1.2696
G1 X22.350 Y69.791 E2.2577
G92 E0.0000
G1 E-1.0000 F3600
G1 X40.072 Y144.269 F7200
G1 E0.0000 F3600
G92 E0.0000
G1 X43.089 Y147.986 E0.3678 F2040
G1 X46.543 Y151.762 E0.7610
G1 X50.215 Y155.326 E1.1542
G1 X54.092 Y158.667 E1.5474
G1 X58.160 Y161.773 E1.9406
G1 X62.404 Y164.632 E2.3338
G1 X66.811 Y167.234 E2.7270
G1 X71.364 Y169.571 E3.1202
G1 X75.974 Y171.602 E3.5072
G1 X75.762 Y172.134 E3.5512
G1 X72.990 Y171.151 E3.7772
G1 X67.974 Y169.055 E4.1948
G1 X63.082 Y166.687 E4.6124
G1 X59.643 Y164.784 E4.9144
G1 X58.328 Y164.052 E5.0300
G1 X53.725 Y161.160 E5.4477
G1 X49.289 Y158.018 E5.8653
G1 X45.033 Y154.637 E6.2830
G1 X40.969 Y151.027 E6.7006
G1 X36.863 Y146.952 E7.1451
G1 X38.026 Y146.881 E7.2346
G1 X38.593 Y146.697 E7.2803
G1 X39.095 Y146.378 E7.3261
G1 X39.501 Y145.943 E7.3718
G1 X39.785 Y145.419 E7.4176
G1 X40.072 Y144.269 E7.5087
G92 E0.0000
G1 E-1.0000 F3600
G1 X141.027 Y171.602 F7200
G1 E0.0000 F3600
G92 E0.0000
G1 X145.636 Y169.571 E0.3870 F2040
G1 X150.189 Y167.234 E0.7802
G1 X154.596 Y164.632 E1.1734
G1 X158.841 Y161.773 E1.5666
G1 X162.908 Y158.667 E1.9598
G1 X166.785 Y155.326 E2.3530
G1 X170.457 Y151.762 E2.7462
G1 X173.911 Y147.986 E3.1394
G1 X176.928 Y144.269 E3.5072
G1 X177.215 Y145.419 E3.5983
G1 X177.499 Y145.943 E3.6441
G1 X177.905 Y146.378 E3.6898
G1 X178.407 Y146.697 E3.7355
G1 X178.974 Y146.881 E3.7813
G1 X180.137 Y146.952 E3.8708
G1 X176.031 Y151.027 E4.3153
G1 X171.967 Y154.637 E4.7329
G1 X167.711 Y158.018 E5.1506
G1 X163.275 Y161.160 E5.5682
G1 X158.672 Y164.052 E5.9859
G1 X157.357 Y164.784 E6.1015
G1 X153.918 Y166.687 E6.4034
G1 X149.026 Y169.055 E6.8211
G1 X144.010 Y171.151 E7.2387
G1 X141.238 Y172.134 E7.4647
G1 X141.027 Y171.602 E7.5087
G92 E0.0000
G1 E-1.0000 F3600
G1 X191.423 Y81.831 F7200
G1 E0.0000 F3600
G92 E0.0000
G1 X192.538 Y77.917 E0.3127 F2040
G1 X193.547 Y73.317 E0.6745
G1 X194.102 Y69.749 E0.9520
G1 X194.650 Y69.791 E0.9942
G1 X194.650 Y82.651 E1.9822
G1 X193.723 Y81.911 E2.0733
G1 X193.172 Y81.667 E2.1197
G1 X192.577 Y81.571 E2.1660
G1 X191.977 Y81.628 E2.2123
G1 X191.423 Y81.831 E2.2576
; feature outer perimeter
G1 X190.619 Y82.245 F7200
G92 E0.0000
G1 X191.898 Y77.755 E0.3586 F1680
G1 X192.898 Y73.196 E0.7173
G1 X193.615 Y68.583 E1.0759
G1 X194.046 Y63.936 E1.4345
G1 X194.190 Y59.275 E1.7928
G1 X194.190 Y40.804 E3.2119
G1 X195.310 Y40.804 E3.2980
G1 X195.310 Y91.609 E7.2014
G1 X195.162 Y96.673 E7.5906
G1 X194.720 Y101.715 E7.9794
G1 X193.985 Y106.722 E8.3683
G1 X192.959 Y111.678 E8.7571
G1 X191.647 Y116.566 E9.1459
G1 X190.051 Y121.369 E9.5348
G1 X188.179 Y126.070 E9.9236
G1 X186.036 Y130.655 E10.3125
G1 X183.629 Y135.107 E10.7013
G1 X180.967 Y139.411 E11.0901
G1 X178.043 Y143.574 E11.4809
G1 X177.846 Y143.923 E11.5118
G1 X177.735 Y144.336 E11.5446
G1 X177.731 Y144.764 E11.5774
G1 X177.835 Y145.178 E11.6103
G1 X178.039 Y145.554 E11.6431
G1 X178.330 Y145.866 E11.6759
G1 X178.691 Y146.096 E11.7088
G1 X179.097 Y146.227 E11.7416
G1 X179.524 Y146.253 E11.7744
G1 X179.943 Y146.171 E11.8073
G1 X180.329 Y145.987 E11.8401
G1 X180.643 Y145.723 E11.8716
G1 X183.983 Y141.912 E12.2610
G1 X187.113 Y137.948 E12.6490
G1 X189.210 Y134.992 E12.9275
G1 X190.034 Y133.827 E13.0371
G1 X192.739 Y129.562 E13.4251
G1 X195.222 Y125.164 E13.8132
G1 X197.475 Y120.643 E14.2013
G1 X199.366 Y116.304 E14.5649
G1 X200.761 Y116.807 E14.6788
G1 X199.888 Y118.892 E14.8525
G1 X198.896 Y121.098 E15.0383
G1 X197.669 Y123.660 E15.2566
G1 X201.447 Y123.461 E15.5473
G1 X201.679 Y123.479 E15.5652
G1 X201.877 Y123.549 E15.5814
G1 X202.051 Y123.668 E15.5975
G1 X202.188 Y123.828 E15.6137
G1 X202.196 Y123.844 E15.6151
G1 X202.279 Y124.019 E15.6299
G1 X202.317 Y124.226 E15.6461
G1 X202.301 Y124.436 E15.6623
G1 X202.231 Y124.634 E15.6785
G1 X202.111 Y124.808 E15.6947
G1 X201.951 Y124.945 E15.7109
G1 X201.761 Y125.036 E15.7271
G1 X201.532 Y125.078 E15.7449
G1 X196.397 Y125.350 E16.1401
G1 X193.614 Y130.281 E16.5751
G1 X190.666 Y134.892 E16.9956
G1 X187.470 Y139.333 E17.4160
G1 X184.991 Y142.405 E17.7193
G1 X184.033 Y143.591 E17.8364
G1 X180.367 Y147.653 E18.2568
G1 X176.483 Y151.508 E18.6772
G1 X172.392 Y155.142 E19.0977
G1 X168.107 Y158.546 E19.5181
G1 X163.642 Y161.709 E19.9385
G1 X159.008 Y164.621 E20.3590
G1 X157.676 Y165.361 E20.4761
G1 X154.222 Y167.273 E20.7794
G1 X149.297 Y169.657 E21.1998
G1 X144.248 Y171.767 E21.6202
G1 X138.862 Y173.676 E22.0593
G1 X138.862 Y177.864 E22.3810
G1 X138.832 Y178.095 E22.3989
G1 X138.751 Y178.289 E22.4151
G1 X138.623 Y178.456 E22.4312
G1 X138.456 Y178.585 E22.4474
G1 X138.261 Y178.665 E22.4636
G1 X138.052 Y178.693 E22.4798
G1 X137.843 Y178.665 E22.4960
G1 X137.649 Y178.585 E22.5122
G1 X137.481 Y178.456 E22.5284
G1 X137.353 Y178.289 E22.5446
G1 X137.272 Y178.095 E22.5608
G1 X137.242 Y177.864 E22.5786
G1 X137.242 Y174.187 E22.8611
G1 X131.777 Y175.657 E23.2960
G1 X126.671 Y176.747 E23.6971
G1 X122.937 Y177.345 E23.9876
G1 X121.516 Y177.567 E24.0981
G1 X116.324 Y178.115 E24.4993
G1 X111.110 Y178.390 E24.9004
G1 X105.890 Y178.390 E25.3015
G1 X104.453 Y178.316 E25.4120
G1 X100.676 Y178.115 E25.7026
G1 X95.484 Y177.567 E26.1037
G1 X90.328 Y176.747 E26.5048
G1 X88.920 Y176.452 E26.6154
G1 X85.224 Y175.658 E26.9059
G1 X79.758 Y174.187 E27.3407
G1 X79.758 Y177.864 E27.6232
G1 X79.728 Y178.095 E27.6411
G1 X79.647 Y178.289 E27.6573
G1 X79.519 Y178.456 E27.6735
G1 X79.352 Y178.585 E27.6897
G1 X79.157 Y178.665 E27.7059
G1 X78.948 Y178.693 E27.7220
G1 X78.739 Y178.665 E27.7382
G1 X78.544 Y178.585 E27.7544
G1 X78.377 Y178.456 E27.7706
G1 X78.249 Y178.289 E27.7868
G1 X78.168 Y178.095 E27.8030
G1 X78.138 Y177.864 E27.8209
G1 X78.138 Y173.676 E28.1426
G1 X72.752 Y171.767 E28.5816
G1 X67.703 Y169.657 E29.0021
G1 X62.778 Y167.273 E29.4225
G1 X59.324 Y165.361 E29.7258
G1 X57.992 Y164.621 E29.8429
G1 X53.358 Y161.709 E30.2633
G1 X48.893 Y158.546 E30.6838
G1 X44.608 Y155.142 E31.1042
G1 X40.517 Y151.508 E31.5246
G1 X36.633 Y147.653 E31.9450
G1 X32.967 Y143.591 E32.3655
G1 X32.009 Y142.405 E32.4826
G1 X29.530 Y139.333 E32.7859
G1 X26.334 Y134.892 E33.2063
G1 X23.386 Y130.281 E33.6267
G1 X20.604 Y125.350 E34.0618
G1 X15.468 Y125.078 E34.4569
G1 X15.239 Y125.036 E34.4748
G1 X15.049 Y124.945 E34.4910
G1 X14.889 Y124.808 E34.5072
G1 X14.769 Y124.634 E34.5234
G1 X14.699 Y124.436 E34.5396
G1 X14.683 Y124.226 E34.5557
G1 X14.721 Y124.019 E34.5719
G1 X14.812 Y123.828 E34.5881
G1 X14.949 Y123.668 E34.6043
G1 X15.123 Y123.549 E34.6205
G1 X15.321 Y123.479 E34.6367
G1 X15.553 Y123.461 E34.6546
G1 X19.742 Y123.682 E34.9769
G1 X18.425 Y120.933 E35.2111
G1 X17.679 Y119.282 E35.3503
G1 X17.406 Y118.664 E35.4022
G1 X16.576 Y116.686 E35.5670
G1 X17.634 Y116.304 E35.6535
G1 X19.525 Y120.643 E36.0171
G1 X21.778 Y125.164 E36.4052
G1 X24.261 Y129.562 E36.7932
G1 X26.966 Y133.827 E37.1813
G1 X27.790 Y134.992 E37.2909
G1 X29.887 Y137.948 E37.5693
G1 X33.017 Y141.912 E37.9574
G1 X36.357 Y145.723 E38.3467
G1 X36.671 Y145.987 E38.3783
G1 X37.057 Y146.171 E38.4111
G1 X37.476 Y146.253 E38.4439
G1 X37.903 Y146.227 E38.4768
G1 X38.309 Y146.096 E38.5096
G1 X38.670 Y145.866 E38.5424
G1 X38.961 Y145.554 E38.5753
G1 X39.165 Y145.178 E38.6081
G1 X39.269 Y144.764 E38.6409
G1 X39.265 Y144.336 E38.6738
G1 X39.154 Y143.923 E38.7066
G1 X38.957 Y143.574 E38.7374
G1 X36.033 Y139.411 E39.1282
G1 X33.371 Y135.107 E39.5171
G1 X30.965 Y130.655 E39.9059
G1 X28.821 Y126.070 E40.2948
G1 X26.949 Y121.369 E40.6836
G1 X25.353 Y116.566 E41.0724
G1 X24.041 Y111.678 E41.4613
G1 X23.015 Y106.722 E41.8501
G1 X22.280 Y101.715 E42.2389
G1 X21.962 Y98.086 E42.5188
G1 X21.838 Y96.673 E42.6278
G1 X21.690 Y91.609 E43.0170
G1 X21.690 Y40.804 E46.9204
G1 X22.810 Y40.804 E47.0065
G1 X22.810 Y59.275 E48.4256
G1 X22.954 Y63.936 E48.7838
G1 X23.385 Y68.583 E49.1425
G1 X23.901 Y71.906 E49.4008
G1 X24.102 Y73.196 E49.5011
G1 X25.102 Y77.755 E49.8597
G1 X26.381 Y82.245 E50.2184
G1 X27.934 Y86.646 E50.5770
G1 X29.756 Y90.944 E50.9356
G1 X31.839 Y95.121 E51.2943
G1 X34.176 Y99.162 E51.6529
G1 X36.035 Y101.964 E51.9112
G1 X36.757 Y103.051 E52.0115
G1 X39.573 Y106.774 E52.3702
G1 X42.613 Y110.316 E52.7288
G1 X45.866 Y113.664 E53.0874
G1 X49.319 Y116.805 E53.4461
G1 X52.959 Y119.727 E53.8047
G1 X56.773 Y122.419 E54.1633
G1 X60.744 Y124.871 E54.5220
G1 X64.859 Y127.073 E54.8806
G1 X69.688 Y129.308 E55.2893
G1 X74.629 Y131.278 E55.6980
G1 X79.670 Y132.977 E56.1067
G1 X84.796 Y134.400 E56.5154
G1 X89.991 Y135.544 E56.9241
G1 X95.240 Y136.405 E57.3328
G1 X100.529 Y136.980 E57.7416
