; G-Code generated by Simplify3D(R) Version 4.1.2
; Apr 13, 2020 at 1:35:46 AM
; Settings Summary
;   processName,Process1
;   applyToModels,Hebilla_25mm,Hebilla_25mm(2),Hebilla_25mm(3),Hebilla_25mm(4),Hebilla_25mm(5),Hebilla_25mm(6),Hebilla_25mm(7),Hebilla_25mm(8),Hebilla_25mm(9),Hebilla_25mm(10),Hebilla_25mm(11),Hebilla_25mm(12),Hebilla_25mm(13),Hebilla_25mm(14),Hebilla_25mm(15),Hebilla_25mm(16),Hebilla_25mm(17),Hebilla_25mm(18),Hebilla_25mm(19),Hebilla_25mm(20)
;   profileName,HyperCubeZZ_Linear Advance (modified)
;   profileVersion,2020-04-12 01:25:45
;   baseProfile,
;   printMaterial,PLA
;   printQuality,Fast
;   printExtruders,
;   extruderName,Primary Extruder
;   extruderToolheadNumber,0
;   extruderDiameter,0.4
;   extruderAutoWidth,0
;   extruderWidth,0.55
;   extrusionMultiplier,1
;   extruderUseRetract,1
;   extruderRetractionDistance,1
;   extruderExtraRestartDistance,0
;   extruderRetractionZLift,0
;   extruderRetractionSpeed,3600
;   extruderUseCoasting,0
;   extruderCoastingDistance,1
;   extruderUseWipe,0
;   extruderWipeDistance,5
;   primaryExtruder,0
;   layerHeight,0.28
;   topSolidLayers,3
;   bottomSolidLayers,3
;   perimeterOutlines,2
;   printPerimetersInsideOut,1
;   startPointOption,2
;   startPointOriginX,0
;   startPointOriginY,0
;   sequentialIslands,0
;   spiralVaseMode,0
;   firstLayerHeightPercentage,100
;   firstLayerWidthPercentage,120
;   firstLayerUnderspeed,0.4
;   useRaft,0
;   raftExtruder,0
;   raftTopLayers,1
;   raftBaseLayers,2
;   raftOffset,3
;   raftSeparationDistance,0.14
;   raftTopInfill,100
;   aboveRaftSpeedMultiplier,0.3
;   useSkirt,0
;   skirtExtruder,0
;   skirtLayers,1
;   skirtOutlines,1
;   skirtOffset,2
;   usePrimePillar,0
;   primePillarExtruder,999
;   primePillarWidth,12
;   primePillarLocation,7
;   primePillarSpeedMultiplier,1
;   useOozeShield,0
;   oozeShieldExtruder,999
;   oozeShieldOffset,2
;   oozeShieldOutlines,1
;   oozeShieldSidewallShape,1
;   oozeShieldSidewallAngle,30
;   oozeShieldSpeedMultiplier,1
;   infillExtruder,0
;   internalInfillPattern,Rectilinear
;   externalInfillPattern,Rectilinear
;   infillPercentage,20
;   outlineOverlapPercentage,30
;   infillExtrusionWidthPercentage,100
;   minInfillLength,5
;   infillLayerInterval,1
;   internalInfillAngles,45,-45
;   overlapInternalInfillAngles,0
;   externalInfillAngles,45,-45
;   generateSupport,0
;   supportExtruder,0
;   supportInfillPercentage,30
;   supportExtraInflation,0
;   supportBaseLayers,2
;   denseSupportExtruder,0
;   denseSupportLayers,2
;   denseSupportInfillPercentage,70
;   supportLayerInterval,1
;   supportHorizontalPartOffset,0.2
;   supportUpperSeparationLayers,1
;   supportLowerSeparationLayers,1
;   supportType,1
;   supportGridSpacing,1
;   maxOverhangAngle,45
;   supportAngles,90
;   temperatureName,Primary Extruder,hotbed
;   temperatureNumber,0,1
;   temperatureSetpointCount,1,1
;   temperatureSetpointLayers,1,1
;   temperatureSetpointTemperatures,210,60
;   temperatureStabilizeAtStartup,1,1
;   temperatureHeatedBed,0,1
;   fanLayers,5,20
;   fanSpeeds,30,60
;   blipFanToFullPower,0
;   adjustSpeedForCooling,1
;   minSpeedLayerTime,15
;   minCoolingSpeedSlowdown,20
;   increaseFanForCooling,0
;   minFanLayerTime,45
;   maxCoolingFanSpeed,70
;   increaseFanForBridging,0
;   bridgingFanSpeed,50
;   use5D,1
;   relativeEdistances,0
;   allowEaxisZeroing,1
;   independentExtruderAxes,0
;   includeM10123,0
;   stickySupport,1
;   applyToolheadOffsets,0
;   gcodeXoffset,0
;   gcodeYoffset,0
;   gcodeZoffset,0
;   overrideMachineDefinition,1
;   machineTypeOverride,0
;   strokeXoverride,217
;   strokeYoverride,217
;   strokeZoverride,240
;   originOffsetXoverride,0
;   originOffsetYoverride,0
;   originOffsetZoverride,0
;   homeXdirOverride,-1
;   homeYdirOverride,-1
;   homeZdirOverride,-1
;   flipXoverride,1
;   flipYoverride,-1
;   flipZoverride,1
;   toolheadOffsets,0,0|0,0|0,0|0,0|0,0|0,0
;   overrideFirmwareConfiguration,0
;   firmwareTypeOverride,RepRap (Marlin/Repetier/Sprinter)
;   GPXconfigOverride,r2
;   baudRateOverride,115200
;   overridePrinterModels,0
;   printerModelsOverride
;   startingGcode,;clean nozzle,M117 Clean			; Indicate nozzle clean in progress on LCD,M107				; Turn layer fan off,G21				; Set to metric [change to G20 if you want Imperial],G90                          ; Force coordinates to be absolute relative to the origin,G28                          ; Home X/Y/Z axis,;G1 F1800 E-2           ; big retract after autolevel ,G29	;autolevel,M109 S240 T0,M109 S80 T1,G0 X0 Y0 Z0.25 F9000         ; Move in 1mm from edge and up [z] 0.25mm,G92 E0                       ; Set extruder to [0] zero,G1 X50 E60 F200             ; Extrude 50mm filiment along Y axis 150mm long to prime and clean the nozzle,G92 E0                       ; Reset extruder to [0] zero end of cleaning run,; Begin printing with sliced GCode after here,M420 S1,M117 "imprimiendo..",;M900 K0.22 ;pla Grilon3,M900 K0.06 ;PETG PAL NARANJA
;   layerChangeGcode,
;   retractionGcode,
;   toolChangeGcode,
;   endingGcode,M104 S0 ; turn off extruder,M140 S0 ; turn off bed,G28 X0,M84 ; disable motors,M107,;G1 Z150
;   exportFileFormat,gcode
;   celebration,0
;   celebrationSong,Random Song
;   postProcessing,
;   defaultSpeed,6000
;   outlineUnderspeed,0.7
;   solidInfillUnderspeed,0.8
;   supportUnderspeed,0.8
;   rapidXYspeed,7200
;   rapidZspeed,1002
;   minBridgingArea,40
;   bridgingExtraInflation,0
;   bridgingExtrusionMultiplier,1
;   bridgingSpeedMultiplier,1
;   useFixedBridgingAngle,0
;   fixedBridgingAngle,0
;   applyBridgingToPerimeters,0
;   filamentDiameters,1.75|1.75|1.75|1.75|1.75|1.75
;   filamentPricesPerKg,500|500|500|500|500|500
;   filamentDensities,1.25|1.25|1.25|1.25|1.25|1.25
;   useMinPrintHeight,0
;   minPrintHeight,1.1
;   useMaxPrintHeight,0
;   maxPrintHeight,1.1
;   useDiaphragm,0
;   diaphragmLayerInterval,20
;   robustSlicing,1
;   mergeAllIntoSolid,0
;   onlyRetractWhenCrossingOutline,1
;   retractBetweenLayers,1
;   useRetractionMinTravel,0
;   retractionMinTravel,3
;   retractWhileWiping,0
;   onlyWipeOutlines,1
;   avoidCrossingOutline,0
;   maxMovementDetourFactor,3
;   toolChangeRetractionDistance,12
;   toolChangeExtraRestartDistance,-0.5
;   toolChangeRetractionSpeed,600
;   externalThinWallType,0
;   internalThinWallType,1
;   thinWallAllowedOverlapPercentage,10
;   singleExtrusionMinLength,1
;   singleExtrusionMinPrintingWidthPercentage,50
;   singleExtrusionMaxPrintingWidthPercentage,200
;   singleExtrusionEndpointExtension,0.2
;   horizontalSizeCompensation,0
G90
M82
M106 S0
M140 S60
M190 S60
M104 S210 T0
M109 S210 T0
;clean nozzle
M117 Clean			; Indicate nozzle clean in progress on LCD
M107				; Turn layer fan off
G21				; Set to metric [change to G20 if you want Imperial]
G90                          ; Force coordinates to be absolute relative to the origin
G28                          ; Home X/Y/Z axis
;G1 F1800 E-2           ; big retract after autolevel 
G29	;autolevel
M109 S210 T0
M109 S60 T1
G0 X0 Y0 Z0.25 F6000         ; Move in 1mm from edge and up [z] 0.25mm
G92 E0                       ; Set extruder to [0] zero
G1 X50 E60 F200             ; Extrude 50mm filiment along Y axis 150mm long to prime and clean the nozzle
G92 E0                       ; Reset extruder to [0] zero end of cleaning run
; Begin printing with sliced GCode after here
M420 S1
M117 "imprimiendo.."
;M900 K0.22 ;pla Grilon3
M900 K0.06 ;PETG PAL NARANJA
; process Process1
; layer 1, Z = 0.280
T0
G92 E0.0000
G1 E-1.0000 F3600
; feature inner perimeter
; tool H0.280 W0.660
G1 Z0.280 F1002
G1 X19.932 Y21.700 F7200
G1 E0.0000 F3600
G92 E0.0000
G1 X20.459 Y21.274 E0.0521 F2040
G1 X20.459 Y51.828 E2.3996
G1 X19.932 Y51.401 E2.4517
G1 X19.598 Y51.068 E2.4880
G1 X19.301 Y50.701 E2.5242
G1 X19.044 Y50.305 E2.5605
G1 X18.830 Y49.885 E2.5967
G1 X18.661 Y49.444 E2.6330
G1 X18.539 Y48.988 E2.6693
G1 X18.465 Y48.522 E2.7055
G1 X18.439 Y48.025 E2.7438
G1 X18.439 Y25.077 E4.5069
G1 X18.465 Y24.580 E4.5451
G1 X18.539 Y24.113 E4.5814
G1 X18.661 Y23.658 E4.6177
G1 X18.830 Y23.217 E4.6539
G1 X19.044 Y22.796 E4.6902
G1 X19.301 Y22.401 E4.7264
G1 X19.598 Y22.034 E4.7627
G1 X19.932 Y21.700 E4.7989
G1 X20.884 Y21.561 F7200
G92 E0.0000
G1 X20.774 Y21.105 E0.0360 F2040
G1 X21.115 Y20.932 E0.0653
G1 X21.556 Y20.763 E0.1016
G1 X22.011 Y20.641 E0.1379
G1 X22.477 Y20.567 E0.1741
G1 X22.974 Y20.541 E0.2124
G1 X40.188 Y20.550 E1.5349
G1 X40.746 Y20.617 E1.5780
G1 X54.718 Y23.118 E2.6686
G1 X55.214 Y23.235 E2.7077
G1 X55.670 Y23.395 E2.7449
G1 X56.105 Y23.603 E2.7820
G1 X56.634 Y23.929 E2.8296
G1 X56.511 Y24.361 E2.8641
G1 X49.644 Y24.361 E3.3918
G1 X44.468 Y30.054 E3.9829
G1 X43.970 Y30.462 E4.0324
G1 X43.427 Y30.998 E4.0910
G1 X42.937 Y31.582 E4.1495
G1 X42.503 Y32.209 E4.2081
G1 X42.130 Y32.873 E4.2667
G1 X41.819 Y33.570 E4.3253
G1 X41.575 Y34.292 E4.3839
G1 X41.399 Y35.034 E4.4425
G1 X41.293 Y35.789 E4.5010
G1 X41.258 Y36.551 E4.5596
G1 X41.293 Y37.312 E4.6182
G1 X41.399 Y38.067 E4.6768
G1 X41.575 Y38.809 E4.7354
G1 X41.819 Y39.532 E4.7940
G1 X42.130 Y40.228 E4.8525
G1 X42.503 Y40.893 E4.9111
G1 X42.937 Y41.520 E4.9697
G1 X43.427 Y42.104 E5.0283
G1 X43.970 Y42.640 E5.0869
G1 X44.468 Y43.047 E5.1363
G1 X49.644 Y48.741 E5.7275
G1 X56.511 Y48.741 E6.2551
G1 X56.634 Y49.173 E6.2896
G1 X56.106 Y49.498 E6.3373
G1 X55.669 Y49.706 E6.3744
G1 X55.214 Y49.866 E6.4115
G1 X54.718 Y49.983 E6.4507
G1 X40.746 Y52.485 E7.5412
G1 X40.188 Y52.551 E7.5844
G1 X22.974 Y52.561 E8.9069
G1 X22.477 Y52.535 E8.9451
G1 X22.011 Y52.461 E8.9814
G1 X21.555 Y52.339 E9.0176
G1 X21.115 Y52.170 E9.0539
G1 X20.774 Y51.996 E9.0833
G1 X20.884 Y51.541 E9.1192
G1 X25.439 Y51.541 E9.4692
G1 X25.439 Y21.561 E11.7726
G1 X20.884 Y21.561 E12.1226
G92 E0.0000
G1 E-1.0000 F3600
G1 X56.639 Y23.903 F7200
G1 E0.0000 F3600
G92 E0.0000
G1 X57.246 Y24.488 E0.0648 F2040
G1 X57.556 Y24.858 E0.1019
G1 X57.825 Y25.260 E0.1391
G1 X58.049 Y25.688 E0.1762
G1 X58.226 Y26.137 E0.2133
G1 X58.354 Y26.603 E0.2504
G1 X58.431 Y27.080 E0.2875
G1 X58.459 Y27.589 E0.3267
G1 X58.459 Y45.513 E1.7038
G1 X58.431 Y46.021 E1.7429
G1 X58.354 Y46.498 E1.7800
G1 X58.226 Y46.964 E1.8171
G1 X58.049 Y47.414 E1.8543
G1 X57.825 Y47.842 E1.8914
G1 X57.556 Y48.243 E1.9285
G1 X57.246 Y48.614 E1.9656
G1 X56.639 Y49.199 E2.0304
G1 X56.639 Y23.903 E3.9740
; feature outer perimeter
G1 X56.893 Y23.313 F7200
G92 E0.0000
G1 X57.331 Y23.653 E0.0426 F1680
G1 X57.730 Y24.037 E0.0851
G1 X58.085 Y24.462 E0.1277
G1 X58.393 Y24.922 E0.1702
G1 X58.650 Y25.413 E0.2128
G1 X58.853 Y25.928 E0.2553
G1 X59.000 Y26.463 E0.2979
G1 X59.089 Y27.009 E0.3405
G1 X59.119 Y27.571 E0.3837
G1 X59.119 Y45.530 E1.7635
G1 X59.089 Y46.092 E1.8067
G1 X59.000 Y46.639 E1.8493
G1 X58.853 Y47.173 E1.8918
G1 X58.650 Y47.688 E1.9344
G1 X58.393 Y48.179 E1.9770
G1 X58.085 Y48.640 E2.0195
G1 X57.730 Y49.064 E2.0621
G1 X57.331 Y49.449 E2.1046
G1 X56.893 Y49.788 E2.1472
G1 X56.422 Y50.079 E2.1897
G1 X55.922 Y50.317 E2.2323
G1 X55.399 Y50.501 E2.2749
G1 X54.851 Y50.630 E2.3181
G1 X40.843 Y53.138 E3.4115
G1 X40.227 Y53.211 E3.4592
G1 X22.957 Y53.221 E4.7860
G1 X22.408 Y53.192 E4.8282
G1 X21.874 Y53.107 E4.8698
G1 X21.351 Y52.967 E4.9114
G1 X20.846 Y52.773 E4.9529
G1 X20.364 Y52.528 E4.9945
G1 X19.910 Y52.233 E5.0361
G1 X19.490 Y51.892 E5.0777
G1 X19.107 Y51.510 E5.1192
G1 X18.767 Y51.089 E5.1608
G1 X18.472 Y50.635 E5.2024
G1 X18.226 Y50.153 E5.2440
G1 X18.032 Y49.648 E5.2855
G1 X17.892 Y49.126 E5.3271
G1 X17.808 Y48.591 E5.3687
G1 X17.779 Y48.042 E5.4109
G1 X17.779 Y25.059 E7.1767
G1 X17.808 Y24.510 E7.2189
G1 X17.892 Y23.976 E7.2605
G1 X18.032 Y23.453 E7.3021
G1 X18.226 Y22.948 E7.3437
G1 X18.472 Y22.466 E7.3852
G1 X18.767 Y22.012 E7.4268
G1 X19.107 Y21.592 E7.4684
G1 X19.490 Y21.209 E7.5100
G1 X19.910 Y20.869 E7.5515
G1 X20.364 Y20.574 E7.5931
G1 X20.846 Y20.328 E7.6347
G1 X21.351 Y20.134 E7.6763
G1 X21.874 Y19.994 E7.7178
G1 X22.408 Y19.910 E7.7594
G1 X22.957 Y19.881 E7.8016
G1 X40.227 Y19.890 E9.1285
G1 X40.843 Y19.963 E9.1761
G1 X54.851 Y22.472 E10.2695
G1 X55.399 Y22.601 E10.3128
G1 X55.922 Y22.784 E10.3553
G1 X56.422 Y23.023 E10.3979
G1 X56.893 Y23.313 E10.4404
G1 X55.979 Y25.021 F7200
G92 E0.0000
G1 X49.935 Y25.021 E0.4643 F1680
G1 X44.924 Y30.534 E1.0368
G1 X44.412 Y30.953 E1.0876
G1 X43.913 Y31.446 E1.1414
G1 X43.462 Y31.982 E1.1953
G1 X43.064 Y32.559 E1.2491
G1 X42.720 Y33.170 E1.3030
G1 X42.435 Y33.810 E1.3569
G1 X42.210 Y34.474 E1.4107
G1 X42.049 Y35.156 E1.4646
G1 X41.951 Y35.851 E1.5184
G1 X41.918 Y36.551 E1.5723
G1 X41.951 Y37.251 E1.6261
G1 X42.049 Y37.945 E1.6800
G1 X42.210 Y38.627 E1.7339
G1 X42.435 Y39.291 E1.7877
G1 X42.720 Y39.932 E1.8416
G1 X43.064 Y40.543 E1.8954
G1 X43.462 Y41.119 E1.9493
G1 X43.913 Y41.656 E2.0031
G1 X44.412 Y42.149 E2.0570
G1 X44.924 Y42.568 E2.1078
G1 X49.935 Y48.081 E2.6803
G1 X55.979 Y48.081 E3.1446
G1 X55.979 Y25.021 E4.9163
; feature inner perimeter
G1 X39.439 Y21.561 F7200
G92 E0.0000
G1 X34.459 Y21.561 E0.3826 F2040
G1 X34.459 Y51.541 E2.6860
G1 X39.439 Y51.541 E3.0686
G1 X39.439 Y21.561 E5.3720
; feature outer perimeter
G1 X38.779 Y22.221 F7200
G92 E0.0000
G1 X35.119 Y22.221 E0.2812 F1680
G1 X35.119 Y50.881 E2.4832
G1 X38.779 Y50.881 E2.7644
G1 X38.779 Y22.221 E4.9664
; feature inner perimeter
G1 X32.439 Y21.561 F7200
G92 E0.0000
G1 X27.459 Y21.561 E0.3826 F2040
G1 X27.459 Y51.541 E2.6860
G1 X32.439 Y51.541 E3.0686
G1 X32.439 Y21.561 E5.3720
; feature outer perimeter
G1 X31.779 Y22.221 F7200
G92 E0.0000
G1 X28.119 Y22.221 E0.2812 F1680
G1 X28.119 Y50.881 E2.4832
G1 X31.779 Y50.881 E2.7644
G1 X31.779 Y22.221 E4.9664
G1 X24.779 Y22.221 F7200
G92 E0.0000
G1 X21.119 Y22.221 E0.2812 F1680
G1 X21.119 Y50.881 E2.4832
G1 X24.779 Y50.881 E2.7644
G1 X24.779 Y22.221 E4.9664
; feature solid layer
G1 X25.901 Y22.495 F7200
G92 E0.0000
G1 X26.997 Y23.591 E0.1191 F1920
G1 X26.997 Y24.524 E0.1908
G1 X25.901 Y23.428 E0.3099
G1 X25.901 Y24.362 E0.3816
G1 X26.997 Y25.458 E0.5007
G1 X26.997 Y26.391 E0.5724
G1 X25.901 Y25.295 E0.6915
G1 X25.901 Y26.228 E0.7632
G1 X26.997 Y27.324 E0.8823
G1 X26.997 Y28.258 E0.9540
G1 X25.901 Y27.162 E1.0731
G1 X25.901 Y28.095 E1.1448
G1 X26.997 Y29.191 E1.2639
G1 X26.997 Y30.124 E1.3356
G1 X25.901 Y29.028 E1.4547
G1 X25.901 Y29.962 E1.5264
G1 X26.997 Y31.058 E1.6455
G1 X26.997 Y31.991 E1.7172
G1 X25.901 Y30.895 E1.8363
G1 X25.901 Y31.829 E1.9080
G1 X26.997 Y32.925 E2.0271
G1 X26.997 Y33.858 E2.0988
G1 X25.901 Y32.762 E2.2179
G1 X25.901 Y33.695 E2.2896
G1 X26.997 Y34.791 E2.4087
G1 X26.997 Y35.725 E2.4804
G1 X25.901 Y34.629 E2.5995
G1 X25.901 Y35.562 E2.6712
G1 X26.997 Y36.658 E2.7903
G1 X26.997 Y37.592 E2.8620
G1 X25.901 Y36.496 E2.9811
G1 X25.901 Y37.429 E3.0528
G1 X26.997 Y38.525 E3.1719
G1 X26.997 Y39.458 E3.2436
G1 X25.901 Y38.362 E3.3627
G1 X25.901 Y39.296 E3.4344
G1 X26.997 Y40.392 E3.5535
G1 X26.997 Y41.325 E3.6252
G1 X25.901 Y40.229 E3.7443
G1 X25.901 Y41.162 E3.8160
G1 X26.997 Y42.258 E3.9351
G1 X26.997 Y43.192 E4.0068
G1 X25.901 Y42.096 E4.1259
G1 X25.901 Y43.029 E4.1976
G1 X26.997 Y44.125 E4.3167
G1 X26.997 Y45.059 E4.3884
G1 X25.901 Y43.963 E4.5075
G1 X25.901 Y44.896 E4.5792
G1 X26.997 Y45.992 E4.6983
G1 X26.997 Y46.925 E4.7700
G1 X25.901 Y45.829 E4.8891
G1 X25.901 Y46.763 E4.9608
G1 X26.997 Y47.859 E5.0799
G1 X26.997 Y48.792 E5.1516
G1 X25.901 Y47.696 E5.2707
G1 X25.901 Y48.629 E5.3424
G1 X26.997 Y49.725 E5.4615
G1 X26.997 Y50.659 E5.5332
G1 X25.901 Y49.563 E5.6522
G1 X25.901 Y50.496 E5.7240
G1 X26.997 Y51.592 E5.8430
G1 X26.997 Y52.003 E5.8746
G1 X27.407 Y52.003 E5.9061
G1 X27.501 Y52.096 E5.9163
G1 X26.568 Y52.097 E5.9880
G1 X25.901 Y51.430 E6.0604
G1 X25.901 Y52.003 E6.1045
G1 X25.540 Y52.003 E6.1322
G1 X25.635 Y52.097 E6.1424
G1 X24.702 Y52.098 E6.2141
G1 X24.607 Y52.003 E6.2244
G1 X23.674 Y52.003 E6.2961
G1 X23.769 Y52.098 E6.3065
G1 X22.986 Y52.099 E6.3667
G1 X22.828 Y52.090 E6.3788
G1 X22.740 Y52.003 E6.3884
G1 X19.099 Y49.295 F7200
G92 E0.0000
G1 X19.997 Y50.193 E0.0975 F1920
G1 X19.997 Y49.259 E0.1692
G1 X18.909 Y48.171 E0.2874
G1 X18.901 Y48.013 E0.2996
G1 X18.901 Y47.230 E0.3598
G1 X19.997 Y48.326 E0.4789
