; G-Code generated by Simplify3D(R) Version 4.1.2
; Apr 22, 2020 at 6:24:40 PM
; Settings Summary
;   processName,Process1
;   applyToModels,bottom_reinforcement,bottom_reinforcement(2),bottom_reinforcement(3),bottom_reinforcement(4),bottom_reinforcement(5)
;   profileName,HyperCube Linear Advance (modified)
;   profileVersion,2020-04-22 16:39:26
;   baseProfile,
;   printMaterial,PLA
;   printQuality,Fast
;   printExtruders,
;   extruderName,Primary Extruder
;   extruderToolheadNumber,0
;   extruderDiameter,0.4
;   extruderAutoWidth,0
;   extruderWidth,0.55
;   extrusionMultiplier,1
;   extruderUseRetract,1
;   extruderRetractionDistance,1.6
;   extruderExtraRestartDistance,0
;   extruderRetractionZLift,0
;   extruderRetractionSpeed,3600
;   extruderUseCoasting,0
;   extruderCoastingDistance,1
;   extruderUseWipe,0
;   extruderWipeDistance,5
;   primaryExtruder,0
;   layerHeight,0.28
;   topSolidLayers,4
;   bottomSolidLayers,3
;   perimeterOutlines,4
;   printPerimetersInsideOut,1
;   startPointOption,2
;   startPointOriginX,0
;   startPointOriginY,0
;   sequentialIslands,0
;   spiralVaseMode,0
;   firstLayerHeightPercentage,100
;   firstLayerWidthPercentage,110
;   firstLayerUnderspeed,0.4
;   useRaft,0
;   raftExtruder,0
;   raftTopLayers,1
;   raftBaseLayers,2
;   raftOffset,3
;   raftSeparationDistance,0.14
;   raftTopInfill,100
;   aboveRaftSpeedMultiplier,0.3
;   useSkirt,0
;   skirtExtruder,0
;   skirtLayers,1
;   skirtOutlines,1
;   skirtOffset,4
;   usePrimePillar,0
;   primePillarExtruder,999
;   primePillarWidth,12
;   primePillarLocation,7
;   primePillarSpeedMultiplier,1
;   useOozeShield,0
;   oozeShieldExtruder,999
;   oozeShieldOffset,2
;   oozeShieldOutlines,1
;   oozeShieldSidewallShape,1
;   oozeShieldSidewallAngle,30
;   oozeShieldSpeedMultiplier,1
;   infillExtruder,0
;   internalInfillPattern,Rectilinear
;   externalInfillPattern,Rectilinear
;   infillPercentage,20
;   outlineOverlapPercentage,30
;   infillExtrusionWidthPercentage,100
;   minInfillLength,5
;   infillLayerInterval,1
;   internalInfillAngles,45,-45
;   overlapInternalInfillAngles,0
;   externalInfillAngles,45,-45
;   generateSupport,0
;   supportExtruder,0
;   supportInfillPercentage,30
;   supportExtraInflation,0
;   supportBaseLayers,2
;   denseSupportExtruder,0
;   denseSupportLayers,1
;   denseSupportInfillPercentage,70
;   supportLayerInterval,1
;   supportHorizontalPartOffset,0.3
;   supportUpperSeparationLayers,1
;   supportLowerSeparationLayers,1
;   supportType,0
;   supportGridSpacing,1
;   maxOverhangAngle,45
;   supportAngles,0
;   temperatureName,Primary Extruder,hotbed
;   temperatureNumber,0,1
;   temperatureSetpointCount,1,1
;   temperatureSetpointLayers,1,1
;   temperatureSetpointTemperatures,205,60
;   temperatureStabilizeAtStartup,1,1
;   temperatureHeatedBed,0,1
;   fanLayers,1,3,10
;   fanSpeeds,0,35,60
;   blipFanToFullPower,1
;   adjustSpeedForCooling,1
;   minSpeedLayerTime,15
;   minCoolingSpeedSlowdown,20
;   increaseFanForCooling,1
;   minFanLayerTime,45
;   maxCoolingFanSpeed,100
;   increaseFanForBridging,1
;   bridgingFanSpeed,50
;   use5D,1
;   relativeEdistances,0
;   allowEaxisZeroing,1
;   independentExtruderAxes,0
;   includeM10123,0
;   stickySupport,1
;   applyToolheadOffsets,0
;   gcodeXoffset,0
;   gcodeYoffset,0
;   gcodeZoffset,0.01
;   overrideMachineDefinition,1
;   machineTypeOverride,0
;   strokeXoverride,197
;   strokeYoverride,205
;   strokeZoverride,200
;   originOffsetXoverride,0
;   originOffsetYoverride,0
;   originOffsetZoverride,0
;   homeXdirOverride,-1
;   homeYdirOverride,-1
;   homeZdirOverride,-1
;   flipXoverride,1
;   flipYoverride,-1
;   flipZoverride,1
;   toolheadOffsets,0,0|0,0|0,0|0,0|0,0|0,0
;   overrideFirmwareConfiguration,0
;   firmwareTypeOverride,RepRap (Marlin/Repetier/Sprinter)
;   GPXconfigOverride,r2
;   baudRateOverride,115200
;   overridePrinterModels,0
;   printerModelsOverride
;   startingGcode,;clean nozzle,M117 Clean			; Indicate nozzle clean in progress on LCD,M107				; Turn layer fan off,G21				; Set to metric [change to G20 if you want Imperial],G90                          ; Force coordinates to be absolute relative to the origin,G28                          ; Home X/Y/Z axis,G29	;autolevel,G0 X1 Y0 Z0.25 F9000         ; Move in 1mm from edge and up [z] 0.25mm,G92 E0                       ; Set extruder to [0] zero ,G1 X25 E60 F200     ; Extrude 25mm filament along Y axis 150mm long to prime and clean the nozzle,G92 E0                       ; Reset extruder to [0] zero end of cleaning run,; Begin printing with sliced GCode after here,M420 S1,M117 "imprimiendo..",;M900 K0.18 ; PLA MKP negro,M900 K0.10 ; PLA PlastAr rojo
;   layerChangeGcode,
;   retractionGcode,
;   toolChangeGcode,
;   endingGcode,M104 S0 ; turn off extruder,M140 S0 ; turn off bed,G28 X0,M84 ; disable motors,M107,;G1 Z100,G28 X Y ; Home the X and Y axes,M84 ; disable motors
;   exportFileFormat,gcode
;   celebration,0
;   celebrationSong,Random Song
;   postProcessing,
;   defaultSpeed,6000
;   outlineUnderspeed,0.5
;   solidInfillUnderspeed,0.8
;   supportUnderspeed,0.8
;   rapidXYspeed,7200
;   rapidZspeed,1002
;   minBridgingArea,40
;   bridgingExtraInflation,0
;   bridgingExtrusionMultiplier,1
;   bridgingSpeedMultiplier,1
;   useFixedBridgingAngle,0
;   fixedBridgingAngle,0
;   applyBridgingToPerimeters,0
;   filamentDiameters,1.75|1.75|1.75|1.75|1.75|1.75
;   filamentPricesPerKg,800|500|500|500|500|500
;   filamentDensities,1.25|1.25|1.25|1.25|1.25|1.25
;   useMinPrintHeight,1
;   minPrintHeight,0
;   useMaxPrintHeight,0
;   maxPrintHeight,5
;   useDiaphragm,0
;   diaphragmLayerInterval,20
;   robustSlicing,1
;   mergeAllIntoSolid,0
;   onlyRetractWhenCrossingOutline,1
;   retractBetweenLayers,1
;   useRetractionMinTravel,0
;   retractionMinTravel,3
;   retractWhileWiping,0
;   onlyWipeOutlines,1
;   avoidCrossingOutline,0
;   maxMovementDetourFactor,3
;   toolChangeRetractionDistance,12
;   toolChangeExtraRestartDistance,-0.5
;   toolChangeRetractionSpeed,600
;   externalThinWallType,0
;   internalThinWallType,1
;   thinWallAllowedOverlapPercentage,10
;   singleExtrusionMinLength,1
;   singleExtrusionMinPrintingWidthPercentage,50
;   singleExtrusionMaxPrintingWidthPercentage,200
;   singleExtrusionEndpointExtension,0.2
;   horizontalSizeCompensation,0
G90
M82
M106 S0
M140 S60
M190 S60
M104 S205 T0
M109 S205 T0
;clean nozzle
M117 Clean			; Indicate nozzle clean in progress on LCD
M107				; Turn layer fan off
G21				; Set to metric [change to G20 if you want Imperial]
G90                          ; Force coordinates to be absolute relative to the origin
G28                          ; Home X/Y/Z axis
G29	;autolevel
G0 X1 Y0 Z0.25 F9000         ; Move in 1mm from edge and up [z] 0.25mm
G92 E0                       ; Set extruder to [0] zero 
G1 X25 E60 F200     ; Extrude 25mm filament along Y axis 150mm long to prime and clean the nozzle
G92 E0                       ; Reset extruder to [0] zero end of cleaning run
; Begin printing with sliced GCode after here
M420 S1
M117 "imprimiendo.."
;M900 K0.18 ; PLA MKP negro
M900 K0.10 ; PLA PlastAr rojo
; process Process1
; layer 1, Z = 0.290
T0
G92 E0.0000
G1 E-1.6000 F3600
; feature inner perimeter
; tool H0.280 W0.605
G1 Z0.290 F1002
G1 X45.928 Y80.191 F7200
G1 E0.0000 F3600
G92 E0.0000
G1 X47.393 Y80.191 E0.1032 F1800
G1 X48.032 Y80.939 E0.1725
G1 X49.103 Y82.138 E0.2857
G1 X50.199 Y83.311 E0.3988
G1 X51.167 Y84.303 E0.4964
G1 X52.469 Y85.585 E0.6251
G1 X53.643 Y86.684 E0.7383
G1 X54.675 Y87.610 E0.8360
G1 X56.059 Y88.801 E0.9646
G1 X57.303 Y89.820 E1.0779
G1 X58.394 Y90.675 E1.1755
G1 X59.855 Y91.772 E1.3041
G1 X61.164 Y92.705 E1.4174
G1 X62.309 Y93.486 E1.5150
G1 X63.840 Y94.483 E1.6437
G1 X65.209 Y95.327 E1.7569
G1 X66.594 Y96.141 E1.8701
G1 X67.804 Y96.816 E1.9677
G1 X69.418 Y97.674 E2.0963
G1 X70.856 Y98.394 E2.2096
G1 X72.308 Y99.081 E2.3227
G1 X73.573 Y99.647 E2.4204
G1 X75.256 Y100.357 E2.5490
G1 X76.753 Y100.947 E2.6623
G1 X78.260 Y101.502 E2.7754
G1 X79.570 Y101.954 E2.8731
G1 X81.310 Y102.512 E3.0017
G1 X82.852 Y102.967 E3.1150
G1 X84.404 Y103.387 E3.2282
G1 X85.963 Y103.772 E3.3413
G1 X87.315 Y104.076 E3.4389
G1 X89.106 Y104.438 E3.5676
G1 X90.690 Y104.719 E3.6809
G1 X92.278 Y104.964 E3.7940
G1 X93.870 Y105.174 E3.9071
G1 X95.248 Y105.326 E4.0048
G1 X97.068 Y105.488 E4.1335
G1 X98.672 Y105.591 E4.2467
G1 X100.278 Y105.659 E4.3599
G1 X101.884 Y105.691 E4.4730
G1 X103.269 Y105.690 E4.5705
G1 X104.874 Y105.656 E4.6836
G1 X106.479 Y105.586 E4.7968
G1 X108.083 Y105.481 E4.9100
G1 X109.684 Y105.340 E5.0231
G1 X111.281 Y105.164 E5.1363
G1 X112.874 Y104.952 E5.2495
G1 X114.462 Y104.704 E5.3627
G1 X116.043 Y104.422 E5.4758
G1 X117.620 Y104.104 E5.5891
G1 X119.402 Y103.700 E5.7178
G1 X120.747 Y103.365 E5.8154
G1 X122.297 Y102.944 E5.9285
G1 X123.838 Y102.488 E6.0417
G1 X125.368 Y101.998 E6.1549
G1 X126.887 Y101.474 E6.2680
G1 X128.394 Y100.916 E6.3812
G1 X129.888 Y100.325 E6.4944
G1 X131.369 Y99.701 E6.6076
G1 X132.836 Y99.045 E6.7207
G1 X134.289 Y98.355 E6.8340
G1 X135.920 Y97.532 E6.9626
G1 X137.144 Y96.882 E7.0603
G1 X138.546 Y96.098 E7.1734
G1 X139.931 Y95.283 E7.2866
G1 X141.299 Y94.437 E7.3999
G1 X142.829 Y93.438 E7.5285
G1 X143.973 Y92.656 E7.6261
G1 X145.279 Y91.722 E7.7393
G1 X146.566 Y90.758 E7.8524
G1 X147.831 Y89.766 E7.9657
G1 X149.241 Y88.603 E8.0944
G1 X150.291 Y87.700 E8.1920
G1 X151.486 Y86.626 E8.3051
G1 X152.659 Y85.525 E8.4184
G1 X153.960 Y84.242 E8.5471
G1 X154.926 Y83.250 E8.6446
G1 X156.022 Y82.074 E8.7578
G1 X157.091 Y80.874 E8.8710
G1 X157.729 Y80.125 E8.9403
G1 X159.194 Y80.124 E9.0435
G1 X157.997 Y81.531 E9.1737
G1 X156.942 Y82.720 E9.2856
G1 X155.860 Y83.885 E9.3975
G1 X154.754 Y85.027 E9.5096
G1 X153.609 Y86.158 E9.6229
G1 X152.468 Y87.238 E9.7335
G1 X151.290 Y88.305 E9.8455
G1 X150.088 Y89.348 E9.9576
G1 X148.866 Y90.363 E10.0694
G1 X147.604 Y91.365 E10.1829
G1 X146.356 Y92.313 E10.2933
G1 X145.091 Y93.232 E10.4034
G1 X143.764 Y94.153 E10.5172
G1 X142.435 Y95.033 E10.6295
G1 X141.077 Y95.890 E10.7426
G1 X139.728 Y96.701 E10.8534
G1 X138.348 Y97.491 E10.9654
G1 X136.952 Y98.251 E11.0773
G1 X135.539 Y98.981 E11.1894
G1 X134.095 Y99.686 E11.3025
G1 X132.667 Y100.347 E11.4133
G1 X131.210 Y100.983 E11.5253
G1 X129.740 Y101.588 E11.6373
G1 X128.257 Y102.160 E11.7492
G1 X126.745 Y102.706 E11.8624
G1 X125.254 Y103.209 E11.9732
G1 X123.736 Y103.684 E12.0852
G1 X122.210 Y104.126 E12.1971
G1 X120.673 Y104.535 E12.3092
G1 X119.112 Y104.915 E12.4223
G1 X117.575 Y105.254 E12.5332
G1 X116.016 Y105.562 E12.6451
G1 X114.449 Y105.837 E12.7571
G1 X112.878 Y106.078 E12.8691
G1 X111.301 Y106.285 E12.9811
G1 X109.721 Y106.457 E13.0930
G1 X108.137 Y106.595 E13.2050
G1 X106.527 Y106.701 E13.3187
G1 X104.963 Y106.769 E13.4289
G1 X103.402 Y106.804 E13.5389
G1 X101.779 Y106.806 E13.6532
G1 X100.181 Y106.772 E13.7658
G1 X98.603 Y106.704 E13.8770
G1 X97.034 Y106.603 E13.9877
G1 X95.432 Y106.466 E14.1009
G1 X93.852 Y106.295 E14.2129
G1 X92.275 Y106.090 E14.3249
G1 X90.703 Y105.851 E14.4369
G1 X89.154 Y105.581 E14.5476
G1 X87.576 Y105.271 E14.6608
G1 X86.023 Y104.931 E14.7728
G1 X84.477 Y104.557 E14.8848
G1 X82.941 Y104.150 E14.9968
G1 X81.413 Y103.709 E15.1088
G1 X79.895 Y103.236 E15.2207
G1 X78.388 Y102.730 E15.3327
G1 X76.892 Y102.191 E15.4447
G1 X75.408 Y101.620 E15.5567
G1 X73.952 Y101.023 E15.6675
G1 X72.478 Y100.383 E15.7807
G1 X71.034 Y99.716 E15.8927
G1 X69.606 Y99.020 E16.0046
G1 X68.192 Y98.292 E16.1166
G1 X66.794 Y97.533 E16.2286
G1 X65.414 Y96.746 E16.3405
G1 X64.026 Y95.913 E16.4545
G1 X62.705 Y95.080 E16.5645
G1 X61.397 Y94.217 E16.6748
G1 X60.072 Y93.301 E16.7883
G1 X58.781 Y92.365 E16.9006
G1 X57.515 Y91.406 E17.0125
G1 X56.269 Y90.419 E17.1245
G1 X55.058 Y89.415 E17.2352
G1 X53.842 Y88.364 E17.3484
G1 X52.662 Y87.297 E17.4605
G1 X51.507 Y86.206 E17.5724
G1 X50.374 Y85.089 E17.6844
G1 X49.267 Y83.949 E17.7963
G1 X48.183 Y82.784 E17.9084
G1 X47.126 Y81.597 E18.0203
G1 X45.928 Y80.191 E18.1504
G1 X45.630 Y80.775 F7200
G92 E0.0000
G1 X44.661 Y79.586 E0.1080 F1800
G1 X47.672 Y79.586 E0.3201
G1 X48.488 Y80.541 E0.4086
G1 X49.549 Y81.730 E0.5208
G1 X50.637 Y82.894 E0.6330
G1 X51.596 Y83.877 E0.7297
G1 X52.888 Y85.148 E0.8574
G1 X54.051 Y86.238 E0.9697
G1 X55.074 Y87.155 E1.0664
G1 X56.448 Y88.338 E1.1941
G1 X57.682 Y89.348 E1.3064
G1 X58.762 Y90.195 E1.4031
G1 X60.212 Y91.283 E1.5308
G1 X61.510 Y92.209 E1.6430
G1 X62.645 Y92.982 E1.7397
G1 X64.164 Y93.972 E1.8675
G1 X65.521 Y94.809 E1.9797
G1 X66.895 Y95.616 E2.0919
G1 X68.094 Y96.285 E2.1887
G1 X69.695 Y97.136 E2.3163
G1 X71.121 Y97.850 E2.4287
G1 X72.561 Y98.531 E2.5408
G1 X73.814 Y99.092 E2.6376
G1 X75.485 Y99.797 E2.7652
G1 X76.968 Y100.382 E2.8776
G1 X78.463 Y100.932 E2.9897
G1 X79.761 Y101.380 E3.0865
G1 X81.487 Y101.934 E3.2142
G1 X83.017 Y102.385 E3.3264
G1 X84.555 Y102.801 E3.4387
G1 X86.102 Y103.183 E3.5509
G1 X87.442 Y103.484 E3.6476
G1 X89.219 Y103.843 E3.7753
G1 X90.789 Y104.122 E3.8876
G1 X92.363 Y104.365 E3.9998
G1 X93.943 Y104.573 E4.1120
G1 X95.308 Y104.724 E4.2087
G1 X97.114 Y104.884 E4.3364
G1 X98.705 Y104.987 E4.4487
G1 X100.297 Y105.054 E4.5609
G1 X101.890 Y105.086 E4.6731
G1 X103.262 Y105.085 E4.7698
G1 X104.855 Y105.052 E4.8820
G1 X106.446 Y104.982 E4.9942
G1 X108.036 Y104.878 E5.1064
G1 X109.624 Y104.738 E5.2186
G1 X111.208 Y104.563 E5.3309
G1 X112.787 Y104.353 E5.4431
G1 X114.362 Y104.108 E5.5553
G1 X115.931 Y103.828 E5.6675
G1 X117.493 Y103.513 E5.7798
G1 X119.262 Y103.112 E5.9076
G1 X120.594 Y102.779 E6.0043
G1 X122.131 Y102.362 E6.1164
G1 X123.660 Y101.909 E6.2287
G1 X125.177 Y101.423 E6.3409
G1 X126.683 Y100.904 E6.4531
G1 X128.178 Y100.351 E6.5653
G1 X129.660 Y99.765 E6.6776
G1 X131.128 Y99.147 E6.7898
G1 X132.583 Y98.496 E6.9020
G1 X134.023 Y97.812 E7.0143
G1 X135.642 Y96.995 E7.1420
G1 X136.854 Y96.351 E7.2387
G1 X138.245 Y95.573 E7.3510
G1 X139.618 Y94.765 E7.4631
G1 X140.974 Y93.926 E7.5754
G1 X142.493 Y92.935 E7.7032
G1 X143.626 Y92.160 E7.7998
G1 X144.922 Y91.234 E7.9121
G1 X146.197 Y90.278 E8.0243
G1 X147.452 Y89.294 E8.1366
G1 X148.851 Y88.140 E8.2643
G1 X149.892 Y87.245 E8.3610
G1 X151.077 Y86.181 E8.4732
G1 X152.240 Y85.089 E8.5855
G1 X153.531 Y83.816 E8.7132
G1 X154.488 Y82.832 E8.8098
G1 X155.575 Y81.666 E8.9221
G1 X156.635 Y80.477 E9.0343
G1 X157.449 Y79.520 E9.1228
G1 X160.460 Y79.517 E9.3349
G1 X159.493 Y80.707 E9.4429
G1 X158.454 Y81.928 E9.5558
G1 X157.390 Y83.126 E9.6687
G1 X156.299 Y84.301 E9.7815
G1 X155.184 Y85.453 E9.8945
G1 X154.030 Y86.592 E10.0087
G1 X152.879 Y87.682 E10.1203
G1 X151.691 Y88.758 E10.2332
G1 X150.480 Y89.809 E10.3461
G1 X149.247 Y90.833 E10.4590
G1 X147.975 Y91.843 E10.5734
G1 X146.717 Y92.799 E10.6847
G1 X145.441 Y93.726 E10.7957
G1 X144.104 Y94.654 E10.9103
G1 X142.763 Y95.541 E11.0236
G1 X141.394 Y96.405 E11.1376
G1 X140.035 Y97.223 E11.2493
G1 X138.643 Y98.020 E11.3623
G1 X137.235 Y98.785 E11.4751
G1 X135.810 Y99.521 E11.5881
G1 X134.355 Y100.233 E11.7022
G1 X132.915 Y100.899 E11.8139
G1 X131.446 Y101.540 E11.9268
G1 X129.964 Y102.150 E12.0397
G1 X128.468 Y102.727 E12.1526
G1 X126.944 Y103.277 E12.2667
G1 X125.441 Y103.784 E12.3784
G1 X123.911 Y104.263 E12.4913
G1 X122.372 Y104.709 E12.6042
G1 X120.822 Y105.122 E12.7171
G1 X119.248 Y105.504 E12.8312
G1 X117.699 Y105.846 E12.9429
G1 X116.127 Y106.157 E13.0558
G1 X114.547 Y106.434 E13.1687
G1 X112.963 Y106.677 E13.2816
G1 X111.373 Y106.885 E13.3946
G1 X109.780 Y107.059 E13.5074
G1 X108.183 Y107.199 E13.6203
G1 X106.560 Y107.305 E13.7349
G1 X104.983 Y107.374 E13.8460
G1 X103.409 Y107.409 E13.9570
G1 X101.773 Y107.411 E14.0722
G1 X100.161 Y107.376 E14.1857
G1 X98.571 Y107.308 E14.2978
G1 X96.989 Y107.207 E14.4095
G1 X95.374 Y107.068 E14.5236
G1 X93.781 Y106.896 E14.6365
G1 X92.190 Y106.689 E14.7494
G1 X90.606 Y106.448 E14.8623
G1 X89.043 Y106.176 E14.9740
G1 X87.453 Y105.864 E15.0881
G1 X85.887 Y105.520 E15.2010
G1 X84.329 Y105.143 E15.3140
G1 X82.780 Y104.733 E15.4268
G1 X81.239 Y104.289 E15.5398
G1 X79.709 Y103.811 E15.6526
G1 X78.189 Y103.301 E15.7656
G1 X76.681 Y102.758 E15.8785
G1 X75.185 Y102.182 E15.9914
